X:724
T:Reel 724
M:4/4
K:Dmaj
L:1/8
dB|A>D (3DDD AGFG|A>D (3DDD D2 (3ABc |A>D (3DDD AGFG| (3EFE =cA G2:|FE|Dddc dBAF|Dddc d2cd| (3efe dc dcBd| (3ABc AG FDFE|Dddc d2Ac|dcec dcBd| (3cBA ce dBAF| (3GFE FG FDD|A|FDAD BDAD| (3FED AF GBAG|FDAD GFBD|FEFE DCAG|FDAD BDAD|FDAF GEAG|FABc dBAG|FDEC A,DD|
